<?xml version="1.0" encoding="UTF-8"?>
<map version="1.10" tiledversion="1.11.2" orientation="orthogonal" renderorder="right-down" width="43" height="32" tilewidth="16" tileheight="16" infinite="0" nextlayerid="2" nextobjectid="1">
 <tileset firstgid="1" name="test-tiles" tilewidth="16" tileheight="16" tilecount="2560" columns="64">
  <image source="./resources/mainlevbuild.png" width="1024" height="640"/>
 </tileset>
 <tileset firstgid="2561" name="deco" tilewidth="16" tileheight="16" tilecount="256" columns="16">
  <image source="./resources/decorative.png" width="256" height="256"/>
 </tileset>
 <layer id="1" name="Capa de patrones 1" width="43" height="32">
  <data encoding="csv">
79,454,454,454,454,454,454,454,454,454,454,454,454,454,454,454,454,454,454,454,455,456,457,460,461,462,463,454,455,456,461,462,463,454,455,456,457,460,461,462,463,454,70,
272,943,943,879,1391,1392,1139,1135,1136,1007,1522,1523,1391,1392,1007,1007,1007,1587,1136,1135,1392,1586,1587,1007,943,944,880,1583,1584,879,879,879,879,879,880,879,879,880,880,880,880,880,261,
272,943,1327,1328,879,1202,1203,943,944,1007,1586,1587,1007,943,944,1007,1135,1199,1200,943,944,880,1007,1007,1007,1008,879,880,1522,943,1327,1328,943,879,1327,1327,1328,879,1327,1328,944,944,325,
272,1007,1391,1392,1135,1007,943,944,944,879,880,1583,1583,1007,943,944,1135,943,943,1007,943,943,944,1007,880,1007,943,944,1522,943,1330,1331,944,944,1391,1391,1392,879,1391,1330,1331,880,389,
272,943,944,944,944,1135,1007,1008,1008,943,944,943,944,1202,1007,1008,943,1007,1007,943,944,1007,1008,1519,879,943,944,1008,1008,943,1330,1331,1008,1008,944,944,879,880,1139,1394,1395,880,261,
272,1007,1008,1008,1008,1135,1135,1522,943,944,1328,1138,879,944,1199,1200,1007,1008,1008,1007,1008,1327,1327,1522,943,944,943,943,944,943,1394,943,944,1008,1327,1519,943,943,944,944,879,880,325,
272,1584,1136,1199,943,944,1328,879,1007,1008,1523,1202,1203,1008,879,943,944,1523,943,944,1327,1392,1008,943,943,943,944,1007,1008,943,944,1007,1008,1523,1391,1583,1007,1007,1008,1008,879,880,389,
272,880,1136,879,1007,1008,943,944,943,944,1135,943,944,1135,1007,1007,1008,1135,1007,1008,944,944,944,943,944,1007,1008,943,944,943,944,1327,1586,1587,1007,882,883,1394,1395,944,879,880,325,
272,1584,1007,943,943,944,943,944,1007,1008,1199,1007,1008,1007,879,1199,943,943,944,1008,1136,879,943,944,1008,1136,1135,1519,1520,943,943,1327,1519,1520,879,943,944,880,880,880,944,880,261,
272,1008,1135,943,944,944,943,944,944,1135,943,943,944,1136,944,879,1007,1007,943,944,944,944,943,944,1199,1200,1199,943,943,944,1007,1391,1583,1584,943,943,944,944,944,944,1008,880,325,
272,1138,1139,943,944,1008,943,944,1008,1328,947,943,943,943,1327,879,944,944,943,944,1008,943,943,944,1327,943,944,1007,943,944,879,880,1391,1392,943,1007,1008,1008,1008,1008,1008,880,261,
272,1202,943,1007,1008,1135,1007,1008,1008,1392,943,1007,1007,1519,1520,944,1136,943,1007,1327,1328,1007,1519,1520,1519,1520,944,944,1007,1008,879,1008,1331,943,1519,1520,943,944,1007,1008,1011,880,325,
272,880,1007,1008,1135,1136,943,1007,1008,1394,1007,1007,943,1135,1136,943,944,943,944,1391,1392,943,1583,1584,1583,1584,1008,943,944,1392,943,944,1008,1519,1520,1584,943,943,944,1008,879,880,261,
272,944,943,944,1199,879,880,1008,943,944,1135,1136,943,1199,1200,943,944,1327,943,943,943,944,944,1008,1008,1008,1519,1520,944,880,1007,1008,1008,1008,1584,1584,1007,943,943,944,879,880,325,
272,1135,943,944,1200,943,944,944,1007,1008,1199,1200,1136,1519,1520,1007,1008,943,944,943,1007,1519,1519,1520,1007,1327,1583,1584,1008,944,1007,943,1519,1008,1583,1584,1008,1007,1007,1008,880,880,389,
272,1199,1007,1008,943,943,944,1135,1136,944,1199,1200,1200,1519,1519,1519,1520,944,944,943,1007,1583,1583,1584,1007,943,944,1007,1008,943,944,1007,1519,1520,1583,1584,879,880,1394,1395,879,880,261,
272,880,1394,879,1007,1007,1008,1199,1200,879,947,1519,1583,1583,1583,1519,1008,1519,1520,1007,1519,1583,1584,1327,879,1328,1008,944,1008,943,944,1007,1519,1520,1135,1136,943,944,1008,943,879,880,325,
272,944,1587,943,1007,1008,1522,1523,1007,1008,1519,1583,1584,1519,1520,1519,1520,1583,1584,1519,1583,1584,943,1327,879,879,1007,1008,1007,943,944,1519,1520,1584,1135,1136,1007,1008,1136,943,1011,880,389,
272,1008,1394,1394,1007,1008,1394,1587,1587,1007,1583,1584,1008,1519,1520,1519,1520,1007,1008,1583,1584,943,944,1391,1392,879,1007,1008,880,943,1519,1520,1584,1135,1136,1136,1007,1008,1200,943,879,880,261,
272,943,944,944,944,943,944,944,1330,1330,1583,1584,879,1519,1520,1519,1520,1008,1519,1583,1584,944,1519,1520,944,944,944,943,944,1519,1520,1584,1583,1135,1136,1200,1520,1008,1008,879,880,880,325,
272,1007,1008,1008,1008,943,944,1008,1135,1136,1583,1584,1520,1520,1008,1520,1519,1519,1583,1584,944,1008,1583,1584,1008,1008,1008,943,1519,1520,1520,1008,1583,1199,1200,1583,879,1328,1008,943,944,880,389,
272,879,879,1138,1139,943,944,1007,1135,1136,1008,1583,1584,1584,1519,1520,1583,1583,1584,944,1008,1008,944,1008,1135,1135,1135,1007,1519,1520,1584,1008,1008,1008,944,944,1327,1328,1008,943,944,880,261,
272,943,943,1202,879,1007,943,944,1199,1200,1007,1008,1008,1519,1520,1519,1583,1584,1008,1008,1327,1008,1008,880,880,879,1135,1135,1135,1135,1136,1583,1008,1008,1008,1008,944,944,1011,1007,1008,880,325,
272,943,943,944,1586,1587,943,944,943,944,1007,1008,1008,1519,1519,1583,1584,1392,879,1327,1392,1007,1008,944,944,1136,1199,1199,1199,1199,1200,1583,1584,1008,1008,880,944,1519,1394,1395,1395,880,389,
272,943,1007,1008,879,880,1007,943,944,1008,943,944,1135,1135,1135,1135,1135,1136,880,944,1392,1392,1007,1008,1008,1200,1199,1200,1007,1008,1008,1008,1008,879,1327,1328,879,880,1584,1199,1200,880,261,
272,943,944,1007,879,880,1520,1007,1008,943,944,1519,1199,1199,1199,1199,1199,1200,944,1008,943,944,1520,1520,1522,1523,943,944,1391,1392,1392,1200,943,1135,1391,1392,943,944,1136,1008,879,880,325,
272,943,1330,1331,943,944,1584,943,944,1007,1008,1583,1583,1584,1328,1328,943,1007,1008,1395,1007,1008,943,944,944,944,944,944,943,944,1200,879,943,1199,1200,944,1135,1136,1200,1008,879,880,389,
272,943,1394,943,943,944,1523,1007,1008,1007,1008,1008,879,880,880,880,1007,1007,1008,943,944,944,944,944,1008,1008,1008,1008,1007,1008,943,1135,1136,1136,880,1135,1136,1136,880,1523,879,880,261,
272,943,944,1007,1007,943,943,943,944,1011,1007,1008,943,944,944,944,1392,1392,1391,1007,1008,1008,1008,1135,1136,944,943,943,944,1395,1520,1199,1200,1200,944,1199,1200,1200,944,1587,943,944,325,
336,943,1011,1011,1011,1007,1007,1007,1008,1011,1007,1008,1007,1008,1008,1008,943,1011,943,943,943,1007,1008,1199,1200,943,944,1007,1008,1583,1584,1007,1007,1007,1008,1007,1007,1007,1008,879,1007,1008,389,
400,1007,1007,1007,882,882,1007,1008,1007,1007,1007,1007,1007,1007,1007,1007,1007,1011,879,1011,1011,1007,1008,944,1007,1007,1008,944,944,944,944,944,944,1199,1200,944,944,944,944,943,943,944,325,
73,205,206,207,198,199,200,201,198,198,204,205,206,207,198,199,200,201,205,205,204,205,206,207,198,199,200,201,198,198,204,205,206,207,198,199,200,201,202,203,204,205,76
</data>
 </layer>
</map>
