<?xml version="1.0" encoding="UTF-8"?>
<map version="1.10" tiledversion="1.11.2" orientation="orthogonal" renderorder="right-down" width="60" height="49" tilewidth="16" tileheight="16" infinite="0" nextlayerid="7" nextobjectid="1">
 <tileset firstgid="1" name="test-tiles" tilewidth="16" tileheight="16" tilecount="2560" columns="64">
  <image source="../resources/mainlevbuild.png" width="1024" height="640"/>
 </tileset>
 <tileset firstgid="2561" name="deco" tilewidth="16" tileheight="16" tilecount="256" columns="16">
  <image source="../resources/decorative.png" width="256" height="256"/>
 </tileset>
 <layer id="6" name="bounds" width="60" height="49">
  <data encoding="csv">
0,0,0,0,0,0,0,0,0,0,0,0,0,0,0,0,0,0,0,0,0,0,0,0,0,0,0,0,0,0,0,0,0,0,0,0,0,0,0,0,0,0,0,0,0,0,0,0,0,0,0,0,0,0,0,0,0,0,0,0,
0,0,0,0,0,0,0,0,0,0,0,0,0,0,0,0,0,0,0,0,0,0,0,0,0,0,0,0,0,0,0,0,0,0,0,0,0,0,0,0,0,0,0,0,0,0,0,0,0,0,0,0,0,0,0,0,0,0,0,0,
0,0,0,0,0,2119,0,0,0,0,0,0,0,0,0,0,0,0,0,0,0,0,0,0,0,0,0,0,0,0,0,0,0,0,0,0,0,0,0,0,0,0,0,0,0,0,0,0,0,0,0,0,0,0,0,0,0,0,0,0,
0,0,0,0,0,2119,0,0,0,0,0,0,0,0,0,0,0,0,0,0,0,0,0,0,0,0,0,0,0,0,0,0,0,0,0,0,0,0,0,0,0,0,0,0,0,0,0,0,0,0,0,0,0,0,0,0,0,0,0,0,
0,0,0,0,0,2119,0,0,0,0,0,0,0,0,0,0,0,0,0,0,0,0,0,0,0,0,0,0,0,0,0,0,0,0,0,0,0,0,0,0,0,0,0,0,0,0,0,0,0,0,0,0,0,0,0,0,0,0,0,0,
0,0,0,0,0,2119,0,0,0,0,0,0,0,0,0,0,0,0,0,0,0,0,0,0,0,0,0,0,0,0,0,0,0,0,0,0,0,0,0,0,0,0,0,0,0,0,0,0,0,0,0,0,0,0,0,2051,2051,0,0,0,
0,0,0,0,0,2119,2119,2119,2119,2119,2119,2119,2119,2119,2119,2119,2119,2119,2119,2119,2119,2119,2119,2119,2119,2119,2119,2119,0,0,0,0,2119,2119,2119,2119,2119,2119,2119,2119,2119,2119,2119,2119,2119,2119,2119,2119,2119,2119,2119,2119,2119,2119,2119,2051,2051,0,0,0,
0,0,0,0,0,2119,0,0,0,0,0,0,0,0,0,0,0,0,0,0,0,0,0,0,0,0,0,0,0,0,0,0,0,0,0,0,0,0,0,0,0,0,0,0,0,0,0,0,0,0,0,0,0,0,2119,0,0,0,0,0,
0,0,0,0,0,2119,0,0,0,0,0,0,0,0,0,0,0,0,0,0,0,0,0,0,0,0,0,0,0,0,0,0,0,0,0,0,0,0,0,0,0,0,0,0,0,0,0,0,0,0,0,0,0,1156,2119,0,0,0,0,0,
0,0,0,0,0,2119,0,0,0,0,0,0,0,0,0,0,0,0,0,0,0,0,0,0,0,0,0,0,0,0,0,0,0,0,0,0,0,0,0,0,0,0,0,0,0,0,0,0,0,0,0,0,0,1156,2119,0,0,0,0,0,
0,0,0,0,0,2119,0,0,0,0,0,0,0,0,0,0,0,0,0,0,0,0,0,0,0,0,0,0,0,0,0,0,0,0,0,0,0,0,0,0,0,0,0,0,0,0,0,0,0,0,0,0,0,1156,2119,0,0,0,0,0,
0,0,0,0,0,2119,0,0,0,0,0,0,0,0,0,0,0,0,0,0,0,0,0,0,0,0,0,0,0,0,0,0,0,0,0,0,0,0,0,0,0,0,0,0,0,0,0,0,0,0,0,0,0,1156,2119,0,0,0,0,0,
0,0,0,0,0,2119,0,0,0,0,0,0,0,0,0,0,0,0,0,0,0,0,0,0,0,0,0,0,0,0,0,0,0,0,0,0,0,0,0,0,0,0,0,0,0,0,0,0,0,0,0,0,0,1156,2119,0,0,0,0,0,
0,0,0,0,0,2119,0,0,0,0,0,0,0,0,0,0,0,0,0,0,0,0,0,0,0,0,0,0,0,0,0,0,0,0,0,0,0,0,0,0,0,0,0,0,0,0,0,0,0,0,0,0,0,1156,2119,0,0,0,0,0,
0,0,0,0,0,2119,0,0,0,2119,2119,2119,2119,2119,2119,2119,2119,2119,0,0,0,0,0,0,0,0,0,0,0,0,0,0,0,0,0,0,0,0,0,0,0,0,0,0,0,0,0,0,0,0,0,0,0,1156,2119,0,0,0,0,0,
0,0,0,0,0,2119,0,0,0,2119,0,0,0,0,0,0,0,2119,0,0,0,0,0,0,0,0,0,0,0,0,0,0,0,0,0,0,0,0,0,0,0,0,0,0,0,0,0,0,0,1859,0,0,0,1156,2119,0,0,0,0,0,
0,0,0,0,0,2119,0,0,0,2119,0,0,0,0,0,0,0,2119,0,0,0,0,0,0,0,0,0,0,0,0,0,0,0,0,0,0,0,0,0,0,0,0,0,0,0,0,0,0,0,0,0,0,0,1156,2119,0,0,0,0,0,
0,0,0,0,0,2119,0,0,0,2119,0,0,0,0,0,0,0,2119,0,0,0,0,0,0,0,0,0,0,0,0,0,0,0,0,0,0,0,0,0,0,0,0,0,0,0,0,0,0,0,0,0,0,0,1156,2119,0,0,0,0,0,
0,0,0,0,0,2119,0,0,0,2119,0,0,0,0,0,0,0,2119,0,0,0,0,0,0,0,0,0,0,0,0,0,0,0,0,0,0,0,0,0,0,0,0,0,0,0,0,0,0,0,0,0,0,0,1156,2119,0,0,0,0,0,
0,0,0,0,0,2119,0,0,0,2119,0,0,0,0,0,0,0,2119,0,0,0,0,0,0,0,0,0,0,0,0,0,0,0,0,0,0,0,0,0,0,0,0,0,0,0,0,0,0,0,0,0,0,0,1156,2119,0,0,0,0,0,
0,0,0,0,0,2119,0,0,0,2119,2119,2119,2119,2119,2119,2119,2119,2119,0,0,0,0,0,0,0,0,0,0,0,0,0,0,0,0,0,0,0,0,0,0,0,0,0,0,0,0,0,0,0,0,0,0,1156,1156,2119,0,0,0,0,0,
0,0,0,0,0,2119,0,0,0,0,0,0,0,0,0,0,0,0,0,0,0,0,0,0,0,0,0,0,0,0,0,0,0,0,0,0,0,0,0,0,0,0,0,0,0,0,0,0,0,0,0,0,1156,1156,2119,0,0,0,0,0,
0,0,0,0,0,2119,0,0,0,0,0,0,0,0,0,0,0,0,0,0,0,0,0,0,0,0,0,0,0,0,0,0,0,0,0,0,0,0,0,0,0,0,0,0,0,0,0,0,0,0,0,0,1156,1156,2119,0,0,0,0,0,
0,0,0,0,0,2119,0,0,0,0,0,0,0,0,0,0,0,0,0,0,0,0,0,0,0,0,0,0,0,0,0,0,0,0,0,0,0,0,0,0,0,0,0,0,0,0,0,0,0,0,0,0,1156,1156,2119,0,0,0,0,0,
0,0,0,0,0,2119,0,0,0,0,0,0,0,0,0,0,0,0,0,0,0,0,0,0,0,0,0,0,0,0,0,0,0,0,0,0,0,0,0,0,0,0,0,0,0,0,0,0,0,0,0,0,0,1156,2119,0,0,0,0,0,
0,0,0,0,0,2119,0,0,0,0,0,0,0,0,0,0,0,0,0,0,0,0,0,0,0,0,0,0,0,0,0,0,0,0,0,0,0,0,0,0,0,0,0,0,0,0,0,0,0,0,0,0,0,1156,2119,0,0,0,0,0,
0,0,0,0,0,2119,0,0,0,0,0,0,0,0,0,0,0,0,0,0,0,0,0,0,0,0,0,0,0,0,0,0,0,0,0,0,0,0,0,0,0,0,0,0,0,0,0,0,0,0,0,0,0,0,1223,0,0,0,0,0,
0,0,0,0,0,2119,0,0,0,0,0,0,0,0,0,0,0,0,0,0,0,0,0,0,0,0,0,0,0,0,0,0,0,0,0,0,0,0,0,0,0,0,0,0,0,0,0,0,0,0,0,0,0,0,1223,0,0,0,0,0,
0,0,0,0,0,2119,0,0,0,0,0,0,0,0,0,0,0,0,0,0,0,0,0,0,0,0,0,0,0,0,0,0,0,0,0,0,0,0,0,0,0,0,0,0,0,0,0,0,0,0,0,0,0,0,1223,0,0,0,0,0,
0,0,0,0,0,2119,0,0,0,0,0,0,0,0,0,0,0,0,0,0,0,0,0,0,0,0,0,0,0,0,0,0,0,0,0,0,0,0,0,0,0,0,0,0,0,0,0,0,0,0,0,0,0,0,1223,0,0,0,0,0,
0,0,0,0,0,2119,0,0,0,0,0,0,0,0,0,0,0,0,0,0,0,0,0,0,0,0,0,0,0,0,0,0,0,0,0,0,0,0,0,0,0,0,0,0,0,0,0,0,0,0,0,0,0,0,1223,0,0,0,0,0,
0,0,0,0,0,2119,0,0,0,0,0,0,0,0,0,0,0,0,0,0,0,0,0,0,0,0,0,0,0,0,0,0,0,0,0,0,0,0,0,0,0,0,0,0,0,0,0,0,0,0,0,0,0,0,1223,0,0,0,0,0,
0,0,0,0,0,2119,0,0,0,0,0,0,0,0,0,0,0,0,0,0,0,0,0,0,0,0,0,0,0,0,0,0,0,0,0,0,0,0,0,0,0,0,0,0,0,0,0,0,0,0,0,0,0,0,1223,0,0,0,0,0,
0,0,0,0,0,2119,0,0,0,0,0,0,0,0,0,0,0,0,0,0,0,0,0,0,0,0,0,0,0,0,0,0,0,0,0,0,0,0,0,0,0,0,0,0,0,0,0,0,0,0,0,0,0,0,1223,0,0,0,0,0,
0,0,0,0,0,2119,0,0,0,0,0,0,0,0,0,0,0,0,0,0,0,0,0,0,0,0,0,0,0,0,0,0,0,0,0,0,0,0,0,0,0,0,0,0,0,0,0,0,0,0,0,0,0,0,1223,0,0,0,0,0,
0,0,0,0,0,2119,0,0,0,0,2119,0,0,0,2119,0,0,0,0,0,0,0,0,0,0,0,0,0,0,0,0,0,0,0,0,0,0,0,0,0,0,0,0,0,0,0,0,0,0,0,0,0,0,0,1223,0,0,0,0,0,
0,0,0,0,0,2119,0,0,0,0,0,0,0,0,0,0,0,0,0,0,0,0,0,0,0,0,0,0,0,0,0,0,0,0,0,0,0,0,0,0,0,0,0,0,0,0,0,0,0,0,0,0,0,0,2119,0,0,0,0,0,
0,0,0,0,0,2119,0,0,0,0,2119,0,0,0,2119,0,0,0,0,0,0,0,0,0,0,0,0,0,0,0,0,0,0,0,0,0,0,0,0,0,0,0,0,0,0,0,0,0,0,0,0,0,0,0,2119,0,0,0,0,0,
0,0,0,0,0,2119,0,0,0,0,2119,0,0,0,0,0,0,0,0,0,0,0,0,0,0,0,0,0,0,0,0,0,0,0,0,0,0,0,0,0,0,0,0,0,0,0,0,0,0,0,0,0,0,0,2119,0,0,0,0,0,
0,0,0,0,0,2119,0,0,0,0,0,0,0,0,2119,0,0,0,0,0,0,0,0,0,0,0,0,0,0,0,0,0,0,0,0,0,0,0,0,0,0,0,0,0,0,0,0,0,0,0,0,0,0,0,2119,0,0,0,0,0,
0,0,0,0,0,2119,0,0,0,0,0,0,0,0,0,0,0,0,0,0,0,0,0,0,0,0,0,0,0,0,0,0,0,0,0,0,0,0,0,0,0,0,0,0,0,0,0,0,0,0,0,0,0,0,2119,0,0,0,0,0,
0,0,0,0,0,2119,0,0,0,0,2119,0,0,0,2119,0,0,0,0,0,0,0,0,0,0,0,0,0,0,0,0,0,0,0,0,0,0,0,0,0,0,0,0,0,0,0,0,0,0,0,0,0,0,0,2119,0,0,0,0,0,
0,0,0,0,0,2119,0,0,0,0,0,0,0,0,0,0,0,0,0,0,0,0,0,0,0,0,0,0,0,0,0,0,0,0,0,0,0,0,0,0,0,0,0,0,0,0,0,0,0,0,0,0,0,0,2119,0,0,0,0,0,
0,0,0,0,0,2119,0,0,0,0,0,0,0,0,0,0,0,0,0,0,0,0,0,0,0,0,0,0,0,0,0,0,0,0,0,0,0,0,0,0,0,0,0,0,0,0,0,0,0,0,0,0,0,0,2119,0,0,0,0,0,
0,0,0,0,0,2119,0,0,0,0,0,0,0,0,0,0,0,0,0,0,0,0,0,0,0,0,0,0,0,0,0,0,0,0,0,0,0,0,0,0,0,0,0,0,0,0,0,0,0,0,0,0,0,0,2119,0,0,0,0,0,
0,0,0,0,0,2119,0,0,0,0,0,0,0,0,0,0,0,0,0,0,0,0,0,0,0,0,0,0,0,0,0,0,0,0,0,0,0,0,0,0,0,0,0,0,0,0,0,0,0,0,0,0,0,0,2119,0,0,0,0,0,
0,0,0,0,0,2119,0,0,0,0,0,0,0,0,0,0,0,0,0,0,0,0,0,0,0,0,0,0,0,0,0,0,0,0,0,0,0,0,0,0,0,0,0,0,0,0,0,0,0,0,0,0,0,0,2119,0,0,0,0,0,
0,0,0,0,0,2119,0,0,0,0,0,0,0,0,0,0,0,0,0,0,0,0,0,0,0,0,0,0,0,0,0,0,0,0,0,0,0,0,0,0,0,0,0,0,0,0,0,0,0,0,0,0,0,0,2119,0,0,0,0,0,
0,0,0,0,0,2119,2119,2119,2119,2119,2119,2119,2119,2119,2119,2119,2119,2119,2119,2119,2119,2119,2119,2119,2119,2119,2119,2119,2119,2119,2119,2119,2119,2119,2119,2119,2119,2119,2119,2119,2119,2119,2119,2119,2119,2119,2119,2119,2119,2119,2119,2119,2119,2119,2119,0,0,0,0,0
</data>
 </layer>
 <layer id="1" name="Capa de patrones 1" width="60" height="49" visible="0">
  <data encoding="csv">
0,0,0,0,0,0,0,0,0,0,0,0,0,0,0,0,0,0,0,0,0,0,0,0,0,0,0,0,0,0,0,0,0,0,0,0,0,0,0,0,0,0,0,0,0,0,0,0,0,0,0,0,0,0,0,0,0,0,0,0,
0,0,0,0,0,0,0,0,0,0,0,0,0,0,0,0,0,0,0,0,0,0,0,0,0,0,0,0,0,0,0,0,0,0,0,0,0,0,0,0,0,0,0,0,0,0,0,0,0,0,0,0,0,0,0,0,0,0,0,0,
0,0,0,0,0,0,391,0,0,0,0,0,0,0,0,0,0,0,0,0,0,0,0,0,0,0,0,0,0,0,0,0,0,0,0,0,0,0,0,0,0,0,0,0,0,0,0,0,0,0,0,0,0,0,0,0,0,0,0,0,
0,0,0,0,0,0,391,0,0,0,0,0,0,0,0,0,0,0,0,0,0,0,0,0,0,0,0,0,0,0,0,0,0,0,0,0,0,0,0,0,0,0,0,0,0,0,0,0,0,0,0,0,0,332,0,0,0,0,0,0,
0,0,0,0,0,0,391,0,0,0,0,0,0,0,0,0,0,0,0,68,68,68,68,68,68,0,0,0,0,0,0,0,0,0,0,0,0,0,0,0,0,0,0,0,0,0,0,0,0,0,0,0,0,389,0,0,0,0,0,0,
0,0,0,0,0,0,391,0,0,0,0,0,0,0,0,0,0,0,0,0,0,0,0,0,0,0,0,0,0,0,0,0,0,0,0,0,0,0,0,0,0,0,0,0,0,0,0,0,0,0,0,0,0,389,0,0,0,0,0,0,
0,0,0,0,0,0,391,454,454,454,454,454,454,454,454,454,454,454,454,454,454,454,454,454,454,454,454,454,454,454,454,455,456,457,460,461,462,463,454,455,456,461,462,463,454,455,456,457,460,461,462,463,454,389,0,0,0,0,0,0,
0,0,0,0,0,0,272,943,943,879,879,880,943,943,879,1391,1392,1139,1135,1136,1007,1522,1523,1391,1392,1007,1007,1007,1587,1136,1135,1392,1586,1587,1007,943,944,880,1583,1584,879,879,879,879,879,880,879,879,880,880,880,880,880,261,0,0,0,0,0,0,
0,0,0,0,0,0,272,943,1327,1328,943,944,943,1327,1328,879,1202,1203,943,944,1007,1586,1587,1007,943,944,1007,1135,879,879,879,879,880,1007,1007,1007,1008,879,880,1522,943,1327,1328,943,879,1327,1327,1328,879,1327,1328,944,944,325,0,0,0,0,0,0,
0,0,0,0,0,0,272,879,880,880,1327,1328,880,880,880,880,880,880,880,880,879,880,1583,1583,1007,943,944,1135,943,943,1007,943,943,944,1007,880,1007,1327,1327,1327,1327,1327,1327,1327,1327,1328,1391,1392,879,1391,1330,1331,880,389,0,0,0,0,0,0,
0,0,0,0,0,0,272,943,944,944,1391,1327,1327,1328,944,944,944,944,944,944,880,880,880,1327,1328,1328,880,880,880,880,880,880,880,880,880,880,880,1391,1391,1391,1391,1391,1391,1391,1391,1327,1328,880,880,880,880,880,880,325,0,0,0,0,0,0,
0,0,0,0,0,0,272,943,943,879,1391,1391,1327,1327,1328,1007,1522,1523,943,944,944,944,1327,1328,1328,1392,944,944,944,944,944,944,944,944,944,944,944,1391,1392,944,944,944,944,944,944,1327,1327,1328,944,944,944,944,944,261,0,0,0,0,0,0,
0,0,0,0,0,0,272,943,1327,1328,879,1202,1391,1391,1392,1007,1586,1587,1007,943,944,1327,1328,1328,1392,943,944,880,1007,1007,1007,1008,879,880,1522,943,1327,1328,943,879,1327,1327,1328,879,1327,1391,1391,1392,880,1327,1328,944,944,325,0,0,0,0,0,0,
0,0,0,0,0,0,272,1007,1391,1392,1135,1007,943,944,944,879,880,1583,1583,1007,943,1391,1392,1392,943,1007,943,943,944,1007,880,1007,943,944,1522,943,1330,1331,944,944,1391,1391,1392,879,1391,1330,1331,879,879,1391,1330,1331,880,261,0,0,0,0,0,0,
0,0,0,0,0,0,272,943,944,944,944,1135,1007,1008,1008,943,944,943,944,1202,1007,1008,943,1007,1007,943,944,1007,1008,1519,879,943,944,1008,1008,943,1330,1331,1008,1008,944,944,879,880,1139,1394,1395,879,879,1139,1394,1395,880,261,0,0,0,0,0,0,
0,0,0,0,0,0,272,1007,1008,1008,1008,1135,1135,1522,943,944,1328,1138,879,944,1199,1200,1007,1008,1008,1007,1008,1327,1327,1522,943,944,943,943,944,943,1394,943,944,1008,1184,1185,879,879,879,1519,1520,879,880,944,944,879,880,325,0,0,0,0,0,0,
0,0,0,0,0,0,272,1584,1136,1199,943,944,1328,879,1007,1008,1523,1202,1203,1008,879,943,944,1523,943,944,1327,1392,1008,943,943,943,944,1007,1008,943,944,1007,1008,1523,1248,1249,879,1007,1008,1583,1584,879,880,1008,1008,879,880,389,0,0,0,0,0,0,
0,0,0,0,0,0,272,880,1136,879,1007,1008,943,944,943,944,1135,943,944,1135,1007,1007,1008,1135,1007,1008,944,944,944,943,944,1007,1008,943,944,943,944,1327,1586,1008,1007,882,883,1394,1395,944,879,879,880,1395,944,879,880,325,0,0,0,0,0,0,
0,0,0,0,0,0,272,1584,1007,943,943,944,943,583,583,1008,1199,1007,1008,1007,879,1199,943,943,944,1008,1136,879,943,944,1008,1136,1135,1519,1520,943,943,1327,1519,944,879,943,943,944,880,880,944,879,880,880,880,944,880,261,0,0,0,0,0,0,
0,0,0,0,0,0,272,1008,1135,943,944,944,943,583,583,1135,943,943,944,1136,944,879,1007,1007,943,944,944,944,943,944,1199,1200,1199,943,943,944,1007,1391,1583,1584,943,943,944,944,944,944,1008,879,880,944,944,1008,880,325,0,0,0,0,0,0,
0,0,0,0,0,0,272,1138,1139,943,944,1008,943,944,1008,1328,947,943,943,943,1327,879,944,944,943,944,1008,943,943,944,1327,943,944,1007,943,944,879,880,879,879,943,1007,1008,1008,1008,1008,1008,879,880,1008,1008,1008,880,261,0,0,0,0,0,0,
0,0,0,0,0,0,272,1202,943,1007,1008,1135,1007,1008,1008,1392,943,1007,1007,1519,1520,944,1136,943,1007,1327,1328,1007,1519,1520,1519,1520,944,944,1007,1008,879,879,879,943,1519,1520,943,944,1007,1008,1008,879,880,1007,1008,1011,880,325,0,0,0,0,0,0,
0,0,0,0,0,0,272,880,1007,1008,1135,1136,943,1007,1008,1394,1007,1007,943,1135,1136,943,944,943,944,1391,1392,943,1583,1584,1583,1584,1008,943,944,1392,1519,1520,1008,1519,1520,1584,943,943,944,1008,944,879,1327,1328,1008,879,880,261,0,0,0,0,0,0,
0,0,0,0,0,0,272,944,943,944,1199,879,880,1008,943,944,1135,1136,943,1199,943,944,944,1327,943,943,943,944,944,1008,1008,1008,1519,1520,944,880,1583,1584,1008,1008,1584,1584,1007,943,943,944,879,879,1327,1327,1328,879,880,325,0,0,0,0,0,0,
0,0,0,0,0,0,272,1135,943,944,1200,943,944,944,1007,1008,1199,1200,1136,1519,943,944,1008,943,944,943,1007,1519,1519,1008,1007,1327,1583,1584,1008,944,1007,943,1519,1008,1008,1584,1008,1007,1008,1008,880,943,944,1327,1328,880,880,389,0,0,0,0,0,0,
0,0,0,0,0,0,272,1199,1007,1008,943,1522,1523,1135,1136,944,1199,1200,1327,943,944,944,1520,944,944,1008,1007,1583,1583,944,1007,943,944,1007,1184,1185,944,1007,1519,1520,944,1584,879,880,944,1008,1008,1008,880,1327,1328,879,880,261,0,0,0,0,0,0,
0,0,0,0,0,0,272,880,1394,879,1007,1586,1587,1199,1008,1008,1184,1185,943,943,1519,1519,1520,944,1520,944,1523,944,1584,1327,879,1328,1008,944,1248,1249,944,1007,1519,1520,1135,1136,943,944,1586,944,944,944,880,1327,1328,879,880,325,0,0,0,0,0,0,
0,0,0,0,0,0,272,944,1587,943,1007,1008,943,944,944,944,1248,1249,943,944,1583,1519,1519,1520,1519,1519,1520,1584,943,1327,879,879,1007,1008,1007,943,1008,1519,1520,1584,1135,1136,1007,1008,1136,943,944,879,880,1327,1328,1011,880,389,0,0,0,0,0,0,
0,0,0,0,0,0,272,1008,1394,1394,1007,1008,943,943,944,1007,1583,1391,1392,1519,1391,1008,1583,1584,1008,1583,1584,943,943,944,1392,879,1007,1008,880,943,944,1520,1522,1523,1523,1136,1007,1008,1200,943,879,879,880,1327,1328,879,880,261,0,0,0,0,0,0,
0,0,0,0,0,0,272,943,944,944,944,943,944,944,1330,1330,1583,1391,1392,1519,943,944,879,1391,944,1327,1328,944,1519,1520,944,944,944,1184,1185,1523,1520,1584,1586,1587,1587,1200,1520,1008,1008,879,880,879,880,1327,1328,880,880,325,0,0,0,0,0,0,
0,0,0,0,0,0,272,1007,1008,1008,1008,943,944,1008,943,944,1583,1391,1392,1520,1008,1520,1519,1519,1583,1391,1392,1008,1583,1584,1008,1008,1008,1248,1249,1587,879,1008,1583,1199,1200,1583,879,1328,1008,943,944,879,880,1391,1392,944,880,389,0,0,0,0,0,0,
0,0,0,0,0,0,272,879,879,1138,1139,943,944,1007,1135,1136,1008,1583,1584,1584,1519,1520,1583,1583,1584,944,1008,1008,944,1008,1135,1135,1135,1007,1519,1520,879,1008,1008,1008,944,944,1327,1328,1008,943,944,879,880,1008,943,944,880,261,0,0,0,0,0,0,
0,0,0,0,0,0,272,943,943,1202,879,1007,943,944,1199,1200,1007,1008,1008,1519,1520,879,1583,1584,1008,1008,1327,1008,1008,880,880,879,1135,1135,879,879,879,1583,1008,1008,1008,1008,944,944,1011,1007,1008,879,880,1011,1007,1008,880,325,0,0,0,0,0,0,
0,0,0,0,0,0,272,943,943,944,1586,1587,943,944,943,944,1007,1008,1008,1519,879,879,1584,1392,879,1327,1392,1007,1008,944,944,1136,1199,1199,879,879,1520,1583,1584,1008,1008,880,944,1519,1394,1395,1395,879,880,1394,1395,1395,880,389,0,0,0,0,0,0,
0,0,0,0,0,0,272,943,1007,1008,879,880,1007,943,944,1008,943,879,879,1135,879,879,1135,1136,880,879,1392,1392,1007,1008,1008,1200,1199,1200,879,879,879,1520,1008,879,1327,1328,879,880,1584,1199,1200,879,880,1584,1199,1200,880,261,0,0,0,0,0,0,
0,0,0,0,0,0,272,943,944,1007,879,880,1520,1007,1184,1185,944,1519,1199,1199,1199,1199,879,1200,944,879,943,944,1520,1520,1522,1523,943,944,1391,1583,1583,1584,943,1135,1522,1523,943,944,1136,1008,1184,1185,880,1136,1008,879,880,325,0,0,0,0,0,0,
0,0,0,0,0,0,272,943,879,1331,943,944,1584,943,1248,1249,1008,1583,1583,1584,1328,1328,879,1007,1008,1395,1007,1008,943,944,944,944,944,944,943,944,1200,879,943,1199,1586,1587,1135,1136,1200,1008,1248,1249,880,1200,1008,879,880,389,0,0,0,0,0,0,
0,0,0,0,0,0,272,943,879,943,943,944,1523,1007,1008,1007,1008,1008,879,880,880,880,1007,1007,879,943,944,944,944,944,1008,1008,1008,1008,1007,1008,943,1135,1136,1136,880,1135,879,879,879,1523,1327,1328,1328,1328,1328,879,880,261,0,0,0,0,0,0,
0,0,0,0,0,0,272,943,879,1007,1007,943,943,943,944,1011,1007,1008,943,944,944,944,1392,1392,1391,1007,1008,1008,1327,1328,1328,944,943,943,944,1395,1520,1199,1200,1200,944,1199,1200,1200,944,1587,1391,879,1392,1392,1392,943,944,325,0,0,0,0,0,0,
0,0,0,0,0,0,272,943,879,879,1011,1007,1007,1007,1008,1011,1007,1008,1007,1008,1008,1008,943,1011,943,943,943,1007,1391,1392,1392,943,944,1007,1008,1583,1584,1007,1007,1007,1008,1007,1007,1007,1008,879,1007,879,880,1008,879,1007,1008,261,0,0,0,0,0,0,
0,0,0,0,0,0,272,1327,1328,943,944,943,1327,1328,1327,1328,943,944,943,1327,1328,879,1202,1203,943,944,1007,1586,1587,1007,943,944,1007,1135,879,879,879,879,880,1007,1007,1007,1008,879,880,1522,943,1327,1328,943,879,1327,1327,325,0,0,0,0,0,0,
0,0,0,0,0,0,272,880,880,1327,1328,880,880,880,880,880,1327,1328,880,880,880,880,880,880,1519,1520,944,1520,944,1583,1007,943,944,1135,943,943,1007,943,943,944,1007,880,1007,1327,1327,1327,1327,1327,1327,1327,1327,1328,1391,389,0,0,0,0,0,0,
0,0,0,0,0,0,272,944,944,1391,1327,1327,1328,944,944,944,1391,1327,1327,1328,944,944,944,944,1519,1519,1520,1519,1519,1327,1328,1328,880,880,880,880,880,880,880,880,880,880,880,1391,1391,1391,1391,1391,1391,1391,1391,1327,1328,261,0,0,0,0,0,0,
0,0,0,0,0,0,272,944,944,944,944,944,1327,1328,943,879,1520,944,880,1583,1584,1008,1008,1584,1584,1583,1584,1008,1583,1328,1328,1392,944,944,944,944,944,944,944,944,944,944,944,1391,1392,944,944,944,944,944,944,1327,1327,325,0,0,0,0,0,0,
0,0,0,0,0,0,272,944,1008,1008,1008,1008,1391,1392,1327,1328,1584,1008,944,1007,943,1519,1008,1008,1584,879,1391,944,1327,1135,1136,880,879,1392,1392,1007,1008,1008,1200,1199,1200,879,879,879,1520,1008,879,1327,1328,879,880,1584,1199,389,0,0,0,0,0,0,
0,0,0,0,0,0,272,1328,1328,944,943,943,1587,1200,1520,1008,1007,1184,1185,944,1007,1519,1520,944,1584,1519,1519,1583,1391,879,1200,944,879,943,944,1520,1520,1522,1523,943,944,1391,1583,1583,1584,943,1135,1522,1523,943,944,1136,1008,261,0,0,0,0,0,0,
0,0,0,0,0,0,272,1392,1392,943,944,1007,1200,1583,879,1328,944,1248,1249,944,1007,1519,1520,1135,1136,1583,1583,1584,944,879,1007,1008,1395,1007,1008,943,944,944,944,944,944,943,944,1200,879,943,1199,1586,1587,1135,1136,1200,1008,325,0,0,0,0,0,0,
0,0,0,0,0,0,73,198,199,200,201,202,203,204,205,206,207,202,203,204,205,206,207,198,199,200,201,202,203,204,205,206,207,198,199,200,201,202,203,204,205,206,207,198,199,200,201,202,203,204,205,206,207,76,0,0,0,0,0,0,
0,0,0,0,0,0,0,0,0,0,0,0,0,0,0,0,0,0,0,0,0,0,0,0,0,0,0,0,0,0,0,0,0,0,0,0,0,0,0,0,0,0,0,0,0,0,0,0,0,0,0,0,0,0,0,0,0,0,0,0
</data>
 </layer>
 <layer id="2" name="Capa de patrones 2" width="60" height="49" visible="0">
  <data encoding="csv">
0,0,0,0,0,334,334,334,334,334,334,334,334,334,334,334,334,334,334,334,334,334,334,334,334,334,334,334,334,334,334,334,334,334,334,334,334,334,334,334,334,334,334,334,334,334,334,334,334,334,334,334,334,334,334,0,0,0,0,0,
0,0,0,0,0,0,334,334,334,334,334,334,334,334,334,334,334,334,334,334,334,334,334,334,334,334,334,334,56,57,58,59,334,334,334,334,334,334,334,334,334,334,334,334,334,334,334,334,334,334,334,334,334,334,334,0,0,0,0,0,
0,0,0,0,0,0,334,334,334,334,334,334,334,334,334,334,334,334,334,334,334,334,334,334,334,334,334,334,120,121,122,123,334,334,334,334,334,334,334,334,334,334,334,334,334,334,334,334,334,334,334,334,334,334,136,136,0,0,0,0,
0,0,0,0,0,0,79,455,455,454,455,456,458,459,462,460,461,462,463,456,458,459,462,460,461,462,458,459,184,185,186,187,458,459,454,455,456,457,458,459,460,461,462,463,458,779,780,781,782,783,458,779,780,70,136,136,136,0,0,0,
0,0,0,0,0,0,272,837,838,839,840,841,842,843,844,845,846,847,519,520,522,523,518,519,520,521,230,231,248,249,250,251,230,231,518,519,520,521,522,523,524,525,526,527,528,843,844,845,846,847,848,517,518,389,136,136,136,0,0,0,
0,0,0,0,0,0,272,901,902,903,904,905,906,907,908,909,910,911,583,584,586,587,582,583,584,585,294,295,312,313,314,315,294,295,582,583,584,585,586,587,588,589,590,591,592,907,908,909,910,911,912,581,582,389,136,136,136,0,0,0,
0,0,0,0,0,0,272,965,966,967,968,969,970,971,972,973,974,975,647,648,650,651,646,647,648,649,358,359,376,377,378,379,358,359,646,647,648,649,650,651,652,653,654,655,656,971,972,973,974,975,976,645,646,389,136,136,136,0,0,0,
0,0,0,0,0,0,272,1029,1030,1031,1032,1033,1034,1035,1036,1037,1038,1039,712,711,714,715,710,711,712,713,422,423,440,441,442,443,422,423,710,711,712,713,714,715,716,717,718,719,720,1035,1036,1037,1038,1039,1040,709,710,389,136,136,136,136,0,0,
0,0,0,0,0,0,0,0,0,0,0,0,0,0,0,0,0,0,0,0,0,0,0,0,0,0,0,135,135,135,135,135,135,135,135,0,0,0,0,0,0,0,0,0,0,0,0,0,0,0,0,0,0,0,136,0,136,136,136,0,
0,0,0,0,0,0,0,0,0,0,0,0,0,0,0,0,0,0,0,0,0,0,0,0,0,135,135,135,135,135,135,135,135,135,135,135,0,0,0,0,0,0,0,0,0,0,0,0,0,0,0,0,0,0,0,0,0,0,0,0,
0,0,0,0,0,0,0,0,0,0,0,0,0,0,0,0,0,0,0,0,0,0,0,0,0,0,0,0,0,0,0,0,0,0,0,0,0,0,0,0,0,0,0,0,0,0,0,0,0,0,0,0,0,0,0,0,0,0,0,0,
0,0,0,0,0,0,0,0,0,0,0,0,0,0,0,0,0,0,0,0,0,0,0,0,0,0,0,0,0,0,0,0,0,0,0,0,0,0,0,0,0,0,0,0,0,0,0,0,0,0,0,0,0,0,0,0,0,0,0,0,
0,0,0,0,0,0,0,0,0,0,0,0,0,0,0,0,0,0,0,0,0,0,0,0,0,0,0,0,0,0,0,0,0,0,0,0,0,0,0,0,136,0,0,0,0,0,0,0,0,0,0,0,0,0,0,0,0,0,0,0,
0,0,0,0,0,0,0,0,0,133,0,0,0,0,0,0,0,144,135,0,0,0,0,0,0,0,0,0,0,0,0,0,0,0,0,0,0,0,0,0,136,136,136,0,0,0,0,0,0,0,0,0,0,0,0,0,0,0,0,0,
0,0,0,0,0,0,0,0,324,197,199,199,199,198,199,198,199,208,337,0,0,0,0,0,0,0,0,0,0,0,0,0,0,0,0,0,0,0,0,0,0,136,0,0,0,0,0,0,0,0,0,0,0,0,0,0,0,0,0,0,
0,0,0,0,0,0,0,0,388,325,329,329,329,329,329,329,329,272,401,0,0,0,0,0,0,0,0,0,0,0,0,0,0,0,0,0,0,0,0,0,0,136,0,0,0,0,0,0,0,0,0,0,0,0,0,0,0,0,0,0,
0,0,0,0,0,0,0,0,388,325,329,329,329,329,329,329,329,336,401,0,0,0,0,0,0,0,0,0,0,0,0,0,0,0,0,0,0,0,0,0,0,0,0,0,0,0,0,0,0,0,0,0,0,0,0,0,0,0,0,0,
0,0,0,0,0,0,0,0,452,453,455,455,455,454,455,456,457,464,465,0,0,0,0,0,0,0,0,0,0,0,0,0,0,0,0,0,0,0,0,0,0,0,0,0,0,0,0,0,0,0,0,0,0,0,0,0,0,0,0,0,
0,0,0,0,0,0,0,0,516,517,646,647,647,2585,2583,853,854,522,529,0,0,0,0,0,0,0,0,0,0,0,0,0,0,0,0,0,0,0,0,0,0,0,0,0,0,0,0,0,0,0,0,0,0,0,0,0,0,0,0,0,
0,0,0,0,0,0,0,0,580,581,646,646,647,2601,2599,917,918,586,593,0,0,0,0,0,0,0,0,0,0,0,0,0,0,0,0,0,0,0,0,0,0,0,0,0,0,0,0,0,0,0,0,0,0,0,0,0,0,0,0,0,
0,0,0,0,0,0,0,0,644,645,646,647,647,646,647,981,982,650,657,0,0,0,0,0,0,0,0,0,0,0,0,0,0,0,0,0,0,0,0,0,0,0,0,0,0,0,0,0,0,0,0,0,0,0,0,0,0,0,0,0,
0,0,0,0,0,0,0,0,708,709,711,711,711,710,711,712,713,714,721,0,0,0,0,0,0,0,0,0,0,0,0,0,0,0,0,0,0,0,0,0,0,0,0,0,0,0,0,0,0,0,0,0,0,0,0,0,0,0,0,0,
0,0,0,0,0,0,0,0,0,0,0,0,0,0,0,0,0,0,0,0,0,0,0,0,0,0,0,0,0,0,0,0,0,0,0,0,0,0,0,0,0,0,0,0,0,0,0,0,0,0,0,0,0,0,0,0,0,0,0,0,
0,0,0,0,0,0,0,0,0,0,0,0,0,0,0,0,0,0,0,0,0,0,0,0,0,0,0,0,0,0,0,0,0,0,0,0,0,0,0,0,0,0,0,0,0,0,0,0,0,0,0,0,0,0,0,0,0,0,0,0,
0,0,0,0,0,0,0,0,0,0,0,0,0,0,0,0,0,0,0,0,0,0,0,0,0,0,0,0,0,0,0,0,0,0,0,0,0,0,0,0,0,0,0,0,0,0,0,0,0,0,0,0,0,0,0,0,0,0,0,0,
0,0,0,0,0,0,0,0,0,0,0,0,0,0,0,0,0,0,0,0,0,0,0,0,0,0,0,0,0,0,0,0,0,0,0,0,0,0,0,0,0,0,0,0,0,0,0,0,0,0,0,0,0,0,0,0,0,0,0,0,
0,0,0,0,0,0,0,0,0,0,0,0,0,0,0,0,0,0,0,0,0,0,0,0,0,0,0,0,0,0,0,0,0,0,0,0,0,0,0,0,0,0,0,0,0,0,0,0,0,0,0,0,0,0,0,0,0,0,0,0,
0,0,0,0,0,0,0,0,0,0,0,0,0,0,0,0,0,0,0,0,0,0,0,0,0,0,0,0,0,0,0,0,0,0,0,0,0,0,0,0,0,0,0,0,0,0,0,0,0,0,0,0,0,0,0,0,0,0,0,0,
0,0,0,0,0,0,0,0,0,0,0,0,0,0,0,0,0,0,0,0,0,0,0,0,0,0,0,0,0,0,0,0,0,0,0,0,0,0,0,0,0,0,0,0,0,0,0,0,0,0,0,0,0,0,0,0,0,0,0,0,
0,0,0,0,0,0,0,0,0,0,0,0,0,0,0,0,0,0,0,0,0,0,0,0,0,0,0,0,0,0,0,0,0,0,0,0,0,0,0,0,0,0,0,0,0,0,0,0,0,0,0,0,0,0,0,0,0,0,0,0,
0,0,0,0,0,0,0,0,0,0,0,0,0,0,0,0,0,0,0,0,0,0,0,0,0,0,0,0,0,0,0,0,0,0,0,0,0,0,0,0,0,0,0,0,0,0,0,0,0,0,0,0,0,0,0,0,0,0,0,0,
0,0,0,0,0,0,0,0,0,0,0,0,0,0,0,0,0,0,0,0,0,0,0,0,0,0,0,0,0,0,0,0,0,0,0,0,0,0,0,0,0,0,0,0,0,0,0,0,0,0,0,0,0,0,0,0,0,0,0,0,
0,0,0,0,0,0,0,0,0,0,0,0,0,0,0,0,0,0,0,0,0,0,0,0,0,0,0,0,0,0,0,0,0,0,0,0,0,0,0,0,0,0,0,0,0,0,0,0,0,0,0,0,0,0,0,0,0,0,0,0,
0,0,0,0,0,0,0,0,0,0,0,0,0,0,0,0,0,0,0,0,0,0,0,0,0,0,0,0,0,0,0,0,0,0,0,0,0,0,0,0,0,0,0,0,0,0,0,0,0,0,0,0,0,0,0,0,0,0,0,0,
0,0,0,0,0,0,0,0,0,0,0,0,0,0,0,0,0,0,0,0,0,0,0,0,0,0,0,0,0,0,0,0,0,0,0,0,0,0,0,0,0,0,0,0,0,0,0,0,0,0,0,0,0,0,0,0,0,0,0,0,
0,0,0,0,0,0,0,0,0,0,0,0,0,0,0,0,0,0,0,0,0,0,0,0,0,0,0,0,0,0,0,0,0,0,0,0,0,0,0,0,0,0,0,0,0,0,0,0,0,0,0,0,0,0,0,0,0,0,0,0,
0,0,0,0,0,0,0,0,0,0,0,0,0,0,0,0,0,0,0,0,0,0,0,0,0,0,0,0,0,0,0,0,0,0,0,0,0,0,0,0,0,0,0,0,0,0,0,0,0,0,0,0,0,0,0,0,0,0,0,0,
0,0,0,0,0,0,0,0,0,0,0,0,0,0,0,0,0,0,0,0,0,0,0,0,0,0,0,0,0,0,0,0,0,0,0,0,0,0,0,0,0,0,0,0,0,0,0,0,0,0,0,0,0,0,0,0,0,0,0,0,
0,0,0,0,0,0,0,0,0,0,0,0,0,0,0,0,0,0,0,0,0,0,0,0,0,0,0,0,0,0,0,0,0,0,0,0,0,0,0,0,0,0,0,0,0,0,0,0,0,0,0,0,0,0,0,0,0,0,0,0,
0,0,0,0,0,0,0,0,0,0,0,0,0,0,0,0,0,0,0,0,0,0,0,0,0,0,0,0,0,0,0,0,0,0,0,0,0,0,0,0,0,0,0,0,0,0,0,0,0,0,0,0,0,0,0,0,0,0,0,0,
0,0,0,0,0,0,0,0,0,0,0,0,0,0,0,0,0,0,0,0,0,0,0,0,0,0,0,0,0,0,0,0,0,0,0,0,0,0,0,0,0,0,0,0,0,0,0,0,0,0,0,0,0,0,0,0,0,0,0,0,
0,0,0,0,0,0,0,0,0,0,0,0,0,0,0,0,0,0,0,0,0,0,0,0,0,0,0,0,0,0,0,0,0,0,0,0,0,0,0,0,0,0,0,0,0,0,0,0,0,0,0,0,0,0,0,0,0,0,0,0,
0,0,0,0,0,0,0,0,0,0,0,0,0,0,0,0,0,0,0,0,0,0,0,0,0,0,0,0,0,0,0,0,0,0,0,0,0,0,0,0,0,0,0,0,0,0,0,0,0,0,0,0,0,0,0,0,0,0,0,0,
0,0,0,0,0,0,0,0,0,0,0,0,0,0,0,0,0,0,0,0,0,0,0,0,0,0,0,0,0,0,0,0,0,0,0,0,0,0,0,0,0,0,0,0,0,0,0,0,0,0,0,0,0,0,0,0,0,0,0,0,
0,0,0,0,0,0,0,0,0,0,0,0,0,0,0,0,0,0,0,0,0,0,0,0,0,0,0,0,0,0,0,0,0,0,0,0,0,0,0,0,0,0,0,0,0,0,0,0,0,0,0,0,0,0,0,0,0,0,0,0,
0,0,0,0,0,0,0,0,0,0,0,0,0,0,0,0,0,0,0,0,0,0,0,0,0,0,0,0,0,0,0,0,0,0,0,0,0,0,0,0,0,0,0,0,0,0,0,0,0,0,0,0,0,0,0,0,0,0,0,0,
0,0,0,0,0,0,0,0,0,0,0,0,0,0,0,0,0,0,0,0,0,0,0,0,0,0,0,0,0,0,0,0,0,0,0,0,0,0,0,0,0,0,0,0,0,0,0,0,0,0,0,0,0,0,0,0,0,0,0,0,
0,0,0,0,0,0,0,0,0,0,0,0,0,0,0,0,0,0,0,0,0,0,0,0,0,0,0,0,0,0,0,0,0,0,0,0,0,0,0,0,0,0,0,0,0,0,0,0,0,0,0,0,0,0,0,0,0,0,0,0,
0,0,0,0,0,0,0,0,0,0,0,0,0,0,0,0,0,0,0,0,0,0,0,0,0,0,0,0,0,0,0,0,0,0,0,0,0,0,0,0,0,0,0,0,0,0,0,0,0,0,0,0,0,0,0,0,0,0,0,0
</data>
 </layer>
 <layer id="5" name="deco" width="60" height="49">
  <data encoding="csv">
0,0,0,0,0,0,0,0,0,0,0,0,0,0,0,0,0,0,0,0,0,0,0,0,0,0,0,0,0,0,0,0,0,0,0,0,0,0,0,0,0,0,0,0,0,0,0,0,0,0,0,0,0,0,0,0,0,0,0,0,
0,0,0,0,0,0,0,0,0,0,0,0,0,0,0,0,0,0,0,0,0,0,0,0,0,0,0,0,0,0,0,0,0,0,0,0,0,0,0,0,0,0,0,0,0,0,0,0,0,0,0,0,0,0,0,0,0,0,0,0,
0,0,0,0,0,0,0,0,0,0,0,0,0,0,0,0,0,0,0,0,0,0,0,0,0,0,0,0,0,0,0,0,0,0,0,0,0,0,0,0,0,0,0,0,0,0,0,0,0,0,0,0,0,0,0,0,0,0,0,0,
0,0,0,0,0,0,0,0,0,0,0,0,0,0,0,0,0,0,0,0,0,0,0,0,0,0,0,0,0,0,0,0,0,0,0,0,0,0,0,0,0,0,0,0,0,0,0,0,0,0,0,0,0,0,0,0,0,0,0,0,
0,0,0,0,0,0,0,0,0,0,0,0,0,0,0,0,0,0,0,0,0,0,0,0,0,0,0,0,0,0,0,0,0,0,0,0,0,0,0,0,0,0,0,0,0,0,0,0,0,0,0,0,0,0,0,0,0,0,0,0,
0,0,0,0,0,0,0,0,0,0,0,0,0,0,0,0,0,0,0,0,0,0,0,0,0,0,0,0,0,0,0,0,0,0,0,0,0,0,0,0,0,0,0,0,0,0,0,0,0,0,0,0,0,0,0,0,0,0,0,0,
0,0,0,0,0,0,0,0,0,0,0,0,0,0,0,0,0,0,0,0,0,0,0,0,0,0,0,0,0,0,0,0,0,0,0,0,0,0,0,0,0,0,0,0,0,0,0,0,0,0,0,0,0,0,0,0,0,0,0,0,
0,0,0,0,0,0,0,0,0,0,0,0,0,0,0,0,0,0,0,0,0,0,0,0,0,0,0,0,0,0,0,0,0,0,0,0,0,0,0,0,0,0,0,0,0,0,0,0,0,0,0,0,0,0,0,0,0,0,0,0,
0,0,0,0,0,0,0,0,0,0,0,0,0,0,0,0,0,0,0,0,0,0,0,0,0,0,0,0,0,0,0,0,0,0,0,0,0,0,0,0,0,0,0,0,0,0,0,0,0,0,0,0,0,0,0,0,0,0,0,0,
0,0,0,0,0,0,0,0,0,0,0,0,0,0,0,0,0,0,0,0,0,0,0,0,0,0,0,0,0,0,0,0,0,0,0,0,0,0,0,0,0,0,0,0,0,0,0,0,0,0,0,0,0,0,0,0,0,0,0,0,
0,0,0,0,0,0,0,0,0,0,0,0,0,0,0,0,0,0,0,0,0,0,0,0,0,0,0,0,0,0,0,0,0,0,0,0,0,0,0,0,0,0,0,0,0,0,0,0,0,0,0,0,0,0,0,0,0,0,0,0,
0,0,0,0,0,0,0,0,0,0,0,0,0,0,0,0,0,0,0,0,0,0,0,0,0,0,0,0,0,0,0,0,0,0,0,0,0,0,0,0,0,0,0,0,0,0,0,0,0,0,0,0,0,0,0,0,0,0,0,0,
0,0,0,0,0,0,0,0,0,0,0,0,0,0,0,0,0,0,0,0,0,0,0,0,0,0,0,0,0,0,0,0,0,0,0,0,0,0,0,0,0,0,0,0,0,0,0,0,0,0,0,0,0,0,0,0,0,0,0,0,
0,0,0,0,0,0,0,0,0,0,0,0,0,0,0,0,0,0,0,0,0,0,0,0,0,0,0,0,0,0,0,0,0,0,0,0,0,0,0,0,0,0,0,0,0,0,0,0,0,0,0,0,0,0,0,0,0,0,0,0,
0,0,0,0,0,0,0,0,0,0,0,0,0,0,0,0,0,0,0,0,0,0,0,0,0,0,0,0,0,0,0,0,0,0,0,0,0,0,0,0,0,0,0,0,0,0,0,0,0,0,0,0,0,0,0,0,0,0,0,0,
0,0,0,0,0,0,0,0,0,0,0,0,0,0,0,0,0,0,0,0,0,0,0,0,0,0,0,0,0,0,0,0,0,0,0,0,0,0,0,0,0,0,0,0,0,0,0,0,0,0,0,0,0,0,0,0,0,0,0,0,
0,0,0,0,0,0,0,0,0,0,0,0,0,0,0,0,0,0,0,0,0,0,0,0,0,0,0,0,0,0,0,0,0,0,0,0,0,0,0,0,0,0,0,0,0,0,0,0,0,0,0,0,0,0,0,0,0,0,0,0,
0,0,0,0,0,0,0,0,0,0,0,0,0,0,0,0,0,0,0,0,0,0,0,0,0,0,0,0,0,0,0,0,0,0,0,0,0,0,0,0,0,0,0,0,0,0,0,0,0,0,0,0,0,0,0,0,0,0,0,0,
0,0,0,0,0,0,0,0,0,0,0,0,0,0,0,0,0,0,0,0,0,0,0,0,0,0,0,0,0,0,0,0,0,0,0,0,0,0,0,0,0,0,0,0,0,0,0,0,0,0,0,0,0,0,0,0,0,0,0,0,
0,0,0,0,0,0,0,0,0,0,0,0,0,0,0,0,0,0,0,0,0,0,0,0,0,0,0,0,0,0,0,0,0,0,0,0,0,0,0,0,0,0,0,0,0,0,0,0,0,0,0,0,0,0,0,0,0,0,0,0,
0,0,0,0,0,0,0,0,0,0,0,0,0,0,0,0,0,0,0,0,0,0,0,0,0,0,0,0,0,0,0,0,0,0,0,0,0,0,0,0,0,0,0,0,0,0,0,0,0,0,0,0,0,0,0,0,0,0,0,0,
0,0,0,0,0,0,0,0,0,0,0,0,0,0,0,0,0,0,0,0,0,0,0,0,0,0,0,0,0,0,0,0,0,0,0,0,0,0,0,0,0,0,0,0,0,0,0,0,0,0,0,0,0,0,0,0,0,0,0,0,
0,0,0,0,0,0,0,0,0,0,0,0,0,0,0,0,0,0,0,0,0,0,0,0,0,0,0,0,0,0,0,0,0,0,0,0,0,0,0,0,0,0,0,0,0,0,0,0,0,0,0,0,0,0,0,0,0,0,0,0,
0,0,0,0,0,0,0,0,0,0,0,0,0,0,0,0,0,0,0,0,0,0,0,0,0,0,0,0,0,0,0,0,0,0,0,0,0,0,0,0,0,0,0,0,0,0,0,0,0,0,0,0,0,0,0,0,0,0,0,0,
0,0,0,0,0,0,0,0,0,0,0,0,0,0,0,0,0,0,0,0,0,0,0,0,0,0,0,0,0,0,0,0,0,0,0,0,0,0,0,0,0,0,0,0,0,0,0,0,0,0,0,0,0,0,0,0,0,0,0,0,
0,0,0,0,0,0,0,0,0,0,0,0,0,0,0,0,0,0,0,0,0,0,0,0,0,0,0,0,0,0,0,0,0,0,0,0,0,0,0,0,0,0,0,0,0,0,0,0,0,0,0,0,0,0,0,0,0,0,0,0,
0,0,0,0,0,0,0,0,0,0,0,0,0,0,0,0,0,0,0,0,0,0,0,0,0,0,0,0,0,0,0,0,0,0,0,0,0,0,0,0,0,0,0,0,0,0,0,0,0,0,0,0,0,0,0,0,0,0,0,0,
0,0,0,0,0,0,0,0,0,0,0,0,0,0,0,0,0,0,0,0,0,0,0,0,0,0,0,0,0,0,0,0,0,0,0,0,0,0,0,0,0,0,0,0,0,0,0,0,0,0,0,0,0,0,0,0,0,0,0,0,
0,0,0,0,0,0,0,0,0,0,0,0,0,0,0,0,0,0,0,0,0,0,0,0,0,0,0,0,0,0,0,0,0,0,0,0,0,0,0,0,0,0,0,0,0,0,0,0,0,0,0,0,0,0,0,0,0,0,0,0,
0,0,0,0,0,0,0,0,0,0,0,0,0,0,0,0,0,0,0,0,0,0,0,0,0,0,0,0,0,0,0,0,0,0,0,0,0,0,0,0,0,0,0,0,0,0,0,0,0,0,0,0,0,0,0,0,0,0,0,0,
0,0,0,0,0,0,0,0,0,0,0,0,0,0,0,0,0,0,0,0,0,0,0,0,0,0,0,0,0,0,0,0,0,0,0,0,0,0,0,0,0,0,0,0,0,0,0,0,0,0,0,0,0,0,0,0,0,0,0,0,
0,0,0,0,0,0,0,0,0,0,0,0,0,0,0,0,0,0,0,0,0,0,0,0,0,0,0,0,0,0,0,0,0,0,0,0,0,0,0,0,0,0,0,0,0,0,0,0,0,0,0,0,0,0,0,0,0,0,0,0,
0,0,0,0,0,0,0,0,0,0,0,0,0,0,0,0,0,0,0,0,0,0,0,0,0,0,0,0,0,0,0,0,0,0,0,0,0,0,0,0,0,0,0,0,0,0,0,0,0,0,0,0,0,0,0,0,0,0,0,0,
0,0,0,0,0,0,0,0,0,0,0,0,0,0,0,0,0,0,0,0,0,0,0,0,0,0,0,0,0,0,0,0,0,0,0,0,0,0,0,0,0,0,0,0,0,0,0,0,0,0,0,0,0,0,0,0,0,0,0,0,
0,0,0,0,0,0,0,0,0,2625,2626,2627,0,2689,2690,2691,0,0,0,0,0,0,0,0,0,0,0,0,0,0,0,0,0,0,0,0,0,0,0,0,0,0,0,0,0,0,0,0,0,0,0,0,0,0,0,0,0,0,0,0,
0,0,0,0,0,0,0,0,0,2641,2642,2643,0,2705,2706,2707,0,0,0,0,0,0,0,0,0,0,0,0,0,0,0,0,0,0,0,0,0,0,0,0,0,0,0,0,0,0,0,0,0,0,0,0,0,0,0,0,0,0,0,0,
0,0,0,0,0,0,0,0,0,2657,2658,2659,0,2753,2754,2755,0,0,0,0,0,0,0,0,0,0,0,0,0,0,0,0,0,0,0,0,0,0,0,0,0,0,0,0,0,0,0,0,0,0,0,0,0,0,0,0,0,0,0,0,
0,0,0,0,0,0,0,0,0,2673,2674,2675,0,2769,2770,2771,0,0,0,0,0,0,0,0,0,0,0,0,0,0,0,0,0,0,0,0,0,0,0,0,0,0,0,0,0,0,0,0,0,0,0,0,0,0,0,0,0,0,0,0,
0,0,0,0,0,0,0,0,0,2625,2626,2627,0,2721,2722,2723,0,0,0,0,0,0,0,0,0,0,0,0,0,0,0,0,0,0,0,0,0,0,0,0,0,0,0,0,0,0,0,0,0,0,0,0,0,0,0,0,0,0,0,0,
0,0,0,0,0,0,0,0,0,2641,2642,2643,0,2737,2738,2739,0,0,0,0,0,0,0,0,0,0,0,0,0,0,0,0,0,0,0,0,0,0,0,0,0,0,0,0,0,0,0,0,0,0,0,0,0,0,0,0,0,0,0,0,
0,0,0,0,0,0,0,0,0,2657,2658,2659,0,2657,2658,2659,0,0,0,0,0,0,0,0,0,0,0,0,0,0,0,0,0,0,0,0,0,0,0,0,0,0,0,0,0,0,0,0,0,0,0,0,0,0,0,0,0,0,0,0,
0,0,0,0,0,0,0,0,0,2673,2674,2675,0,2673,2674,2675,0,0,0,0,0,0,0,0,0,0,0,0,0,0,0,0,0,0,0,0,0,0,0,0,0,0,0,0,0,0,0,0,0,0,0,0,0,0,0,0,0,0,0,0,
0,0,0,0,0,0,0,0,0,0,0,0,0,0,0,0,0,0,0,0,0,0,0,0,0,0,0,0,0,0,0,0,0,0,0,0,0,0,0,0,0,0,0,0,0,0,0,0,0,0,0,0,0,0,0,0,0,0,0,0,
0,0,0,0,0,0,0,0,0,0,0,0,0,0,0,0,0,0,0,0,0,0,0,0,0,0,0,0,0,0,0,0,0,0,0,0,0,0,0,0,0,0,0,0,0,0,0,0,0,0,0,0,0,0,0,0,0,0,0,0,
0,0,0,0,0,0,0,0,0,0,0,0,0,0,0,0,0,0,0,0,0,0,0,0,0,0,0,0,0,0,0,0,0,0,0,0,0,0,0,0,0,0,0,0,0,0,0,0,0,0,0,0,0,0,0,0,0,0,0,0,
0,0,0,0,0,0,0,0,0,0,0,0,0,0,0,0,0,0,0,0,0,0,0,0,0,0,0,0,0,0,0,0,0,0,0,0,0,0,0,0,0,0,0,0,0,0,0,0,0,0,0,0,0,0,0,0,0,0,0,0,
0,0,0,0,0,0,0,0,0,0,0,0,0,0,0,0,0,0,0,0,0,0,0,0,0,0,0,0,0,0,0,0,0,0,0,0,0,0,0,0,0,0,0,0,0,0,0,0,0,0,0,0,0,0,0,0,0,0,0,0,
0,0,0,0,0,0,0,0,0,0,0,0,0,0,0,0,0,0,0,0,0,0,0,0,0,0,0,0,0,0,0,0,0,0,0,0,0,0,0,0,0,0,0,0,0,0,0,0,0,0,0,0,0,0,0,0,0,0,0,0,
0,0,0,0,0,0,0,0,0,0,0,0,0,0,0,0,0,0,0,0,0,0,0,0,0,0,0,0,0,0,0,0,0,0,0,0,0,0,0,0,0,0,0,0,0,0,0,0,0,0,0,0,0,0,0,0,0,0,0,0
</data>
 </layer>
</map>
